X:1
T:The Holy Word of God
T:The Holy Word of God
T:Joshua F. Drake
T:Joshua F. Drake, 2006
T:Public Domain Courtesy of the Cyber Hymnal™
C:Joshua F. Drake
Z:Public Domain
Z:Courtesy of the Cyber Hymnal™
%%score ( 1 2 ) ( 3 4 )
L:1/8
Q:1/4=110
M:4/4
K:G
V:1 treble 
V:2 treble 
V:3 bass 
V:4 bass 
V:1
 [DB]2 | [EG]2 [CE]2 G2 [FA]2 | [DB]6 (GF) | [B,E]2 D2 [B,E]2 (B,C) | [A,D]6 [B,E]2 | %5
w: 1.~The|Ho- ly Word of|God: It *|is the Christ- ian’s *|rule To|
w: 2.~Let|o- thers rule by|whim Their *|lives from day to *|day. God’s|
w: 3.~God-|breathed, yet penned by|man, Pre- *|served by arms and *|art, The|
w: 4.~Nor|could she ev- er|do, Else *|truth she could not *|know, But|
w: 5.~Yet|we’ve no cause to|fear. God’s *|prom- is- es are *|true. The|
w: 6.~So|let God’s true Church|sing: Those *|who His Word do *|love— Whom,|
 [EG]2 [DB]2 [Cc]2 [DB]2 | [EA]2 [EG]2 [FA]2 (dc) | (BA) [DG]2 [DG]2 [DF]2 | [DG]6 |] %9
w: teach, cor- rect, re-|buke and train— The *|Chur- * ch’s price- less|jewel.|
w: child- ren have His|Ho- ly Word, Which *|glad- * ly they o-|bey.|
w: Church has born it|in her breast— She *|dare * not from it|part!|
w: set a- drift in|lies and myth On *|way- * ward paths to|go.|
w: gates of hell will|not pre- vail O’er *|those * His grace im-|bues.|
w: as is writ- ten,|shall be saved To *|join * His courts a-|bove.|
V:2
 x2 | x4 (DE) x2 | x6 D2 | x2 D2 G,2 x2 | x8 | x8 | x6 F2 | D2 x6 | x6 |] %9
V:3
 G,[F,A,] | B,2 C2 B,2 [D,D]2 | [G,,G,]6 ([G,,B,][A,,A,]) | G,2 [D,F,]2 [E,G,]2 [G,,G,]2 | %4
 [D,F,]6 [B,,G,]2 | [C,G,]2 [G,,G,]2 G,2 G,2 | [E,C]2 B,2 [D,D]2 [D,C]2 | G,2 G,2 [D,B,]2 [D,A,]2 | %8
 [G,,G,]6 |] %9
V:4
 G, x | (E,D,) (E,C,) (G,,B,,) x2 | x8 | (B,,C,) x6 | x8 | x4 (E,F,) G,2 | x2 (E,C,) x4 | %7
 (G,,A,,) (B,,C,) x4 | x6 |] %9

